X: 2
T: Morning Dew, The
Z: TimBuk2
S: https://thesession.org/tunes/69#setting12525
R: reel
M: 4/4
L: 1/8
K: Dmin
|:D3A zG FE|DE FA GE FC|D3A zG FG|AB cA GE FC:|
G_A dc eg dc/_e/|_zd zc AG FG|Ac df de e2|c3A GE FG|
G_A dc eg dc/_e/|_zd dc zG FG|G/8A/1c df e3d|z3A GE FG|
G/4G3/4F GF DE FG|A2 FA GA =B/4A3/4F|GF GF DE FG|AF cA G2 FG|
G/4G3/4F GF DE FG/B/|z2 FA GA A/4G3/4F|G/8G/1F GF DE FG/B/|zF cA G2 FG||

